X:445
T:Salmon tails up the water
R:Strathspey
O:Scotland
B:Kerr's Second p7
S:Kerr's Second p7
Z:Transcription, chords:Mike Long
M:4/4
L:1/8
K:D
e|:\
"A"A<ee>f e>Ac2|"Am"A<ee>=c "G"B<Gd>B|"A"A<ee>f e>Ac2|"E"B<EE>F "G"G>A B<G:|
|:"A"A<a ~a2 e>ac>a|"G"G<g ~g2 d>g B<G|"A"A<a ~a2 e>ac>a|"G"g<b e<g d<g B<G:|
